Icons/Colored/Home.svg

<svg xmlns="http://www.w3.org/2000/svg" xml:space="preserve" fill-rule="evenodd" stroke-linejoin="round" stroke-miterlimit="2" clip-rule="evenodd" viewBox="0 0 64 64">
  <g id="green">
    <path fill="#6aff4e" fill-rule="nonzero" d="M49.313 53.234H14.23V32.609H3.637L31.965 7.98l6.832 6.04V5.75h7.922v14.375l13.644 12.484h-11.05v20.625ZM25.57 32.492v12h12.418v-12H25.57Z"/>
  </g>
</svg>

<?xml version="1.0" encoding="UTF-8" standalone="no"?>
<!DOCTYPE svg PUBLIC "-//W3C//DTD SVG 1.1//EN" "http://www.w3.org/Graphics/SVG/1.1/DTD/svg11.dtd">
<svg width="100%" height="100%" viewBox="0 0 64 64" version="1.1" xmlns="http://www.w3.org/2000/svg" xmlns:xlink="http://www.w3.org/1999/xlink" xml:space="preserve" xmlns:serif="http://www.serif.com/" style="fill-rule:evenodd;clip-rule:evenodd;stroke-linejoin:round;stroke-miterlimit:2;">
    <g id="surface1">
        <path d="M49.313,53.234L14.23,53.234L14.23,32.609L3.637,32.609L31.965,7.98L38.797,14.02L38.797,5.75L46.719,5.75L46.719,20.125L60.363,32.609L49.313,32.609L49.313,53.234ZM25.57,32.492L25.57,44.492L37.988,44.492L37.988,32.492L25.57,32.492Z" style="fill:#6aff4e;fill-rule:nonzero;"/>
    </g>
</svg>
